X:1
T:Used To
T:Used To
T:Daughtry
C:Zac Maloy, Chris Daughtry, Howard Benson
Z:All Rights Reserved
L:1/16
M:4/4
K:E
V:1 treble 
%%MIDI program 40
V:1
 z16 | z16 | z2 B,2E2FF- FE E4 B,2 | z4 B,B,B,G- G2FE-E2DE- | E2B,E-E2FF- FE2E- E4 | %5
w: ||You used to talk * to me like|I was the on- * ly one- * a- round|* you used * to lean * on me, *|
 z3 B, B,B,B,B, G2F2E2DE- | E2B,EE2FF- F2GE-E2B,2 | z4 B,B,2G- GF2E EEDE- | E4 z4 z4 E2>D2- | %9
w: the on- ly oth- er choice was fall- ing down|* You used * to walk * with me * like|we had no- * where we need- ed to go|* nice and|
 D2 B,6 z4 z2 Bc- | cd2d-d2ee2f2f- f4 |SSSSS z2 B2<e2ff2g3 fee2 | z2 B2<e2f2<f2g2<f2ee- | %13
w: * slow. To no|* place in * par- tic- u- lar. *|We used to have this fig- ured out|We used to breathe with- out a doubt,|
 e2c2<e2c e4 ce2ee- | e2<d2 de2d- d4 z4 | z2 B2<e2ff2g3 (3f2e2c2 | e2>B2 gg f4 g(f2e)ee | %17
w: * when nights were clear you were the first|* star that I'd see. *|We used to have this un- der con-|trol, we nev- er thought, we used * to know|
 e2ce2ce2- e4 z eee-!dacoda! | e2<d2 d4 z BBe2d3!dacoda! | c4 z4 z BBe2d3 | B4 z3 F F2G2F2EE | %21
w: * At least there's you, * and at least|* there's me. Can we get this|back can we get this|back to how it used to be|
 z2 B,2E2FF- FE E4 B,2 | z4 B,2B,G- G2FE-E2DE- | E2B,E-E2FF- F(E2E-) E4 | %24
w: I used to reach * for you when|I got lost * a- long * the way|* I used- * to lis- ten- * * *|
 z3 B, B,B,B,B, G2F2E2DE- | E2B,2<E2F2<F2G2<G2 z2 | z4 GGGG e2d2d2>c2 | %27
w: you al- ways had the just right thing to say|* I used to fol- low you,|nev- er real- ly cared where we would|
 (B2 A/)G/F/E/ D/E/F/G/- G/G z/ z4 c2>B2- | B2 F6 z4 z2 Bc- | cd2d-d2e-e2(f2f-)f2e2!D.S.! | %30
w: go,- * * * * * * * * * * fast or-|* slow. To an-|* y where * at- * all- * * *|
O c4 z4 z eee2f3 | f4 z3 f f2g2g2ee- | e2B2B2d2<d2e2 z4 | z3 B BB2d2>e2f2e3 | z8 z4 cd2e- | %35
w: back can we get this|back to how it used to be?|* I look a- round me|and I want you to be there|'cause I miss-|
 ed2(c B)B2c3 G6 | z4 B2d2<d2e3f3 | z4 z3 e fe2f3g2- | g2 c6 z4 Bd2e- | ed2(c B)B2e2d3- d4 | %40
w: * the things * that we shared.|Look a- round you- *|it's emp- ty and your|* sad 'cause you miss|* the love * that we had. *|
 z2 B,2E2FF- FE E4 B,2 | z4 B,B,B,G G2FEE2DE- | E2<F2 z4 z4 z3 B | e2fg2a2(g3 e4) f2- | %44
w: You used to talk * to me like|I was the on- * ly one * a- round|* * the|on- ly one a- round.- * *|
[M:2/4] f8!D.S.! |[M:4/4] e2<f2 f4 z eeg2f3 | e4 z4 z cce2f3 | f4 z3 B f2g2g2a(a | g12) e2e2- | %49
w: |* there's me. Can we get this|back can we get this|back to how it used to be|* * yeah,-|
 e4 z3 B e2f2f2e-e- | e4- edc2- c8 | z4 z3 B f2g2g2e(e | e6) f6 e4 | z4 z3 B e2f2f2e(e- | %54
w: * to how it used to be?-||To how it used to be,-||to how it used to be,-|
 e4-) edc2 c4 cdB2- | B4 z3 B, F2G2F2EE- | E4 z4 z8 |] %57
w: |* to how it used to be-||

